topics/special-relativity/Latex/images/svg/Tikz_Apparent_Velocity.svg

<?xml version="1.0" encoding="UTF-8"?>
<svg xmlns="http://www.w3.org/2000/svg" xmlns:xlink="http://www.w3.org/1999/xlink" width="147.706pt" height="100.504pt" viewBox="0 0 147.706 100.504" version="1.1">
<defs>
<g>
<symbol overflow="visible" id="glyph0-0">
<path style="stroke:none;" d=""/>
</symbol>
<symbol overflow="visible" id="glyph0-1">
<path style="stroke:none;" d="M 4.84375 -3.796875 C 4.890625 -3.9375 4.890625 -3.953125 4.890625 -4.03125 C 4.890625 -4.203125 4.75 -4.296875 4.59375 -4.296875 C 4.5 -4.296875 4.34375 -4.234375 4.25 -4.09375 C 4.234375 -4.03125 4.140625 -3.734375 4.109375 -3.546875 C 4.03125 -3.296875 3.96875 -3.015625 3.90625 -2.75 L 3.453125 -0.953125 C 3.421875 -0.8125 2.984375 -0.109375 2.328125 -0.109375 C 1.828125 -0.109375 1.71875 -0.546875 1.71875 -0.921875 C 1.71875 -1.375 1.890625 -2 2.21875 -2.875 C 2.375 -3.28125 2.421875 -3.390625 2.421875 -3.59375 C 2.421875 -4.03125 2.109375 -4.40625 1.609375 -4.40625 C 0.65625 -4.40625 0.296875 -2.953125 0.296875 -2.875 C 0.296875 -2.765625 0.390625 -2.765625 0.40625 -2.765625 C 0.515625 -2.765625 0.515625 -2.796875 0.5625 -2.953125 C 0.84375 -3.890625 1.234375 -4.1875 1.578125 -4.1875 C 1.65625 -4.1875 1.828125 -4.1875 1.828125 -3.875 C 1.828125 -3.625 1.71875 -3.359375 1.65625 -3.171875 C 1.25 -2.109375 1.078125 -1.546875 1.078125 -1.078125 C 1.078125 -0.1875 1.703125 0.109375 2.296875 0.109375 C 2.6875 0.109375 3.015625 -0.0625 3.296875 -0.34375 C 3.171875 0.171875 3.046875 0.671875 2.65625 1.203125 C 2.390625 1.53125 2.015625 1.828125 1.5625 1.828125 C 1.421875 1.828125 0.96875 1.796875 0.796875 1.40625 C 0.953125 1.40625 1.09375 1.40625 1.21875 1.28125 C 1.328125 1.203125 1.421875 1.0625 1.421875 0.875 C 1.421875 0.5625 1.15625 0.53125 1.0625 0.53125 C 0.828125 0.53125 0.5 0.6875 0.5 1.171875 C 0.5 1.671875 0.9375 2.046875 1.5625 2.046875 C 2.578125 2.046875 3.609375 1.140625 3.890625 0.015625 Z M 4.84375 -3.796875 "/>
</symbol>
<symbol overflow="visible" id="glyph0-2">
<path style="stroke:none;" d="M 1.328125 -0.828125 C 1.859375 -1.40625 2.15625 -1.65625 2.515625 -1.96875 C 2.515625 -1.96875 3.125 -2.5 3.484375 -2.859375 C 4.4375 -3.78125 4.65625 -4.265625 4.65625 -4.3125 C 4.65625 -4.40625 4.5625 -4.40625 4.546875 -4.40625 C 4.46875 -4.40625 4.453125 -4.390625 4.390625 -4.296875 C 4.09375 -3.8125 3.890625 -3.65625 3.65625 -3.65625 C 3.40625 -3.65625 3.296875 -3.8125 3.140625 -3.984375 C 2.953125 -4.203125 2.78125 -4.40625 2.453125 -4.40625 C 1.703125 -4.40625 1.25 -3.484375 1.25 -3.265625 C 1.25 -3.21875 1.28125 -3.15625 1.359375 -3.15625 C 1.453125 -3.15625 1.46875 -3.203125 1.5 -3.265625 C 1.6875 -3.734375 2.265625 -3.734375 2.34375 -3.734375 C 2.546875 -3.734375 2.734375 -3.671875 2.96875 -3.59375 C 3.375 -3.4375 3.484375 -3.4375 3.734375 -3.4375 C 3.375 -3.015625 2.546875 -2.296875 2.359375 -2.140625 L 1.453125 -1.296875 C 0.78125 -0.625 0.421875 -0.0625 0.421875 0.015625 C 0.421875 0.109375 0.53125 0.109375 0.546875 0.109375 C 0.625 0.109375 0.640625 0.09375 0.703125 -0.015625 C 0.9375 -0.375 1.234375 -0.640625 1.5625 -0.640625 C 1.78125 -0.640625 1.890625 -0.546875 2.140625 -0.265625 C 2.296875 -0.046875 2.484375 0.109375 2.765625 0.109375 C 3.765625 0.109375 4.34375 -1.15625 4.34375 -1.421875 C 4.34375 -1.46875 4.296875 -1.53125 4.21875 -1.53125 C 4.125 -1.53125 4.109375 -1.46875 4.078125 -1.390625 C 3.84375 -0.75 3.203125 -0.5625 2.875 -0.5625 C 2.6875 -0.5625 2.5 -0.625 2.296875 -0.6875 C 1.953125 -0.8125 1.796875 -0.859375 1.59375 -0.859375 C 1.578125 -0.859375 1.421875 -0.859375 1.328125 -0.828125 Z M 1.328125 -0.828125 "/>
</symbol>
<symbol overflow="visible" id="glyph0-3">
<path style="stroke:none;" d="M 3.328125 -3.015625 C 3.390625 -3.265625 3.625 -4.1875 4.3125 -4.1875 C 4.359375 -4.1875 4.609375 -4.1875 4.8125 -4.0625 C 4.53125 -4 4.34375 -3.765625 4.34375 -3.515625 C 4.34375 -3.359375 4.453125 -3.171875 4.71875 -3.171875 C 4.9375 -3.171875 5.25 -3.34375 5.25 -3.75 C 5.25 -4.265625 4.671875 -4.40625 4.328125 -4.40625 C 3.75 -4.40625 3.40625 -3.875 3.28125 -3.65625 C 3.03125 -4.3125 2.5 -4.40625 2.203125 -4.40625 C 1.171875 -4.40625 0.59375 -3.125 0.59375 -2.875 C 0.59375 -2.765625 0.703125 -2.765625 0.71875 -2.765625 C 0.796875 -2.765625 0.828125 -2.796875 0.84375 -2.875 C 1.1875 -3.9375 1.84375 -4.1875 2.1875 -4.1875 C 2.375 -4.1875 2.71875 -4.09375 2.71875 -3.515625 C 2.71875 -3.203125 2.546875 -2.546875 2.1875 -1.140625 C 2.03125 -0.53125 1.671875 -0.109375 1.234375 -0.109375 C 1.171875 -0.109375 0.953125 -0.109375 0.734375 -0.234375 C 0.984375 -0.296875 1.203125 -0.5 1.203125 -0.78125 C 1.203125 -1.046875 0.984375 -1.125 0.84375 -1.125 C 0.53125 -1.125 0.296875 -0.875 0.296875 -0.546875 C 0.296875 -0.09375 0.78125 0.109375 1.21875 0.109375 C 1.890625 0.109375 2.25 -0.59375 2.265625 -0.640625 C 2.390625 -0.28125 2.75 0.109375 3.34375 0.109375 C 4.375 0.109375 4.9375 -1.171875 4.9375 -1.421875 C 4.9375 -1.53125 4.859375 -1.53125 4.828125 -1.53125 C 4.734375 -1.53125 4.71875 -1.484375 4.6875 -1.421875 C 4.359375 -0.34375 3.6875 -0.109375 3.375 -0.109375 C 2.984375 -0.109375 2.828125 -0.421875 2.828125 -0.765625 C 2.828125 -0.984375 2.875 -1.203125 2.984375 -1.640625 Z M 3.328125 -3.015625 "/>
</symbol>
<symbol overflow="visible" id="glyph0-4">
<path style="stroke:none;" d="M 0.875 -0.59375 C 0.84375 -0.4375 0.78125 -0.203125 0.78125 -0.15625 C 0.78125 0.015625 0.921875 0.109375 1.078125 0.109375 C 1.203125 0.109375 1.375 0.03125 1.453125 -0.171875 C 1.46875 -0.203125 1.796875 -1.5625 1.84375 -1.75 C 1.921875 -2.078125 2.109375 -2.765625 2.15625 -3.046875 C 2.203125 -3.171875 2.484375 -3.640625 2.71875 -3.859375 C 2.796875 -3.921875 3.09375 -4.1875 3.515625 -4.1875 C 3.78125 -4.1875 3.921875 -4.0625 3.9375 -4.0625 C 3.640625 -4.015625 3.421875 -3.78125 3.421875 -3.515625 C 3.421875 -3.359375 3.53125 -3.171875 3.796875 -3.171875 C 4.0625 -3.171875 4.34375 -3.40625 4.34375 -3.765625 C 4.34375 -4.109375 4.03125 -4.40625 3.515625 -4.40625 C 2.875 -4.40625 2.4375 -3.921875 2.25 -3.640625 C 2.15625 -4.09375 1.796875 -4.40625 1.328125 -4.40625 C 0.875 -4.40625 0.6875 -4.015625 0.59375 -3.84375 C 0.421875 -3.5 0.296875 -2.90625 0.296875 -2.875 C 0.296875 -2.765625 0.390625 -2.765625 0.40625 -2.765625 C 0.515625 -2.765625 0.515625 -2.78125 0.578125 -3 C 0.75 -3.703125 0.953125 -4.1875 1.3125 -4.1875 C 1.46875 -4.1875 1.609375 -4.109375 1.609375 -3.734375 C 1.609375 -3.515625 1.578125 -3.40625 1.453125 -2.890625 Z M 0.875 -0.59375 "/>
</symbol>
<symbol overflow="visible" id="glyph1-0">
<path style="stroke:none;" d=""/>
</symbol>
<symbol overflow="visible" id="glyph1-1">
<path style="stroke:none;" d="M 4.078125 -2.296875 L 6.859375 -2.296875 C 7 -2.296875 7.1875 -2.296875 7.1875 -2.5 C 7.1875 -2.6875 7 -2.6875 6.859375 -2.6875 L 4.078125 -2.6875 L 4.078125 -5.484375 C 4.078125 -5.625 4.078125 -5.8125 3.875 -5.8125 C 3.671875 -5.8125 3.671875 -5.625 3.671875 -5.484375 L 3.671875 -2.6875 L 0.890625 -2.6875 C 0.75 -2.6875 0.5625 -2.6875 0.5625 -2.5 C 0.5625 -2.296875 0.75 -2.296875 0.890625 -2.296875 L 3.671875 -2.296875 L 3.671875 0.5 C 3.671875 0.640625 3.671875 0.828125 3.875 0.828125 C 4.078125 0.828125 4.078125 0.640625 4.078125 0.5 Z M 4.078125 -2.296875 "/>
</symbol>
<symbol overflow="visible" id="glyph1-2">
<path style="stroke:none;" d="M 3.78125 -0.546875 L 3.78125 0.109375 L 5.25 0 L 5.25 -0.3125 C 4.5625 -0.3125 4.46875 -0.375 4.46875 -0.875 L 4.46875 -6.921875 L 3.046875 -6.8125 L 3.046875 -6.5 C 3.734375 -6.5 3.8125 -6.4375 3.8125 -5.9375 L 3.8125 -3.78125 C 3.53125 -4.140625 3.09375 -4.40625 2.5625 -4.40625 C 1.390625 -4.40625 0.34375 -3.421875 0.34375 -2.140625 C 0.34375 -0.875 1.3125 0.109375 2.453125 0.109375 C 3.09375 0.109375 3.53125 -0.234375 3.78125 -0.546875 Z M 3.78125 -3.21875 L 3.78125 -1.171875 C 3.78125 -1 3.78125 -0.984375 3.671875 -0.8125 C 3.375 -0.328125 2.9375 -0.109375 2.5 -0.109375 C 2.046875 -0.109375 1.6875 -0.375 1.453125 -0.75 C 1.203125 -1.15625 1.171875 -1.71875 1.171875 -2.140625 C 1.171875 -2.5 1.1875 -3.09375 1.46875 -3.546875 C 1.6875 -3.859375 2.0625 -4.1875 2.609375 -4.1875 C 2.953125 -4.1875 3.375 -4.03125 3.671875 -3.59375 C 3.78125 -3.421875 3.78125 -3.40625 3.78125 -3.21875 Z M 3.78125 -3.21875 "/>
</symbol>
</g>
<clipPath id="clip1">
  <path d="M 0 0 L 147.707031 0 L 147.707031 100.503906 L 0 100.503906 Z M 0 0 "/>
</clipPath>
<clipPath id="clip2">
  <path d="M 2 58 L 55 58 L 55 100.503906 L 2 100.503906 Z M 2 58 "/>
</clipPath>
<clipPath id="clip3">
  <path d="M 12 95 L 18 95 L 18 100.503906 L 12 100.503906 Z M 12 95 "/>
</clipPath>
</defs>
<g id="surface1">
<g clip-path="url(#clip1)" clip-rule="nonzero">
<path style=" stroke:none;fill-rule:nonzero;fill:rgb(100%,89.411926%,78.431702%);fill-opacity:1;" d="M 0 100.503906 L 147.707031 100.503906 L 147.707031 0 L 0 0 Z M 0 100.503906 "/>
</g>
<path style="fill:none;stroke-width:0.79701;stroke-linecap:butt;stroke-linejoin:miter;stroke:rgb(0%,0%,0%);stroke-opacity:1;stroke-miterlimit:10;" d="M 0.00109375 0.0015 L 55.895625 0.0015 " transform="matrix(1,0,0,-1,42.745,69.814)"/>
<path style="fill:none;stroke-width:0.79701;stroke-linecap:round;stroke-linejoin:round;stroke:rgb(0%,0%,0%);stroke-opacity:1;stroke-miterlimit:10;" d="M -2.550939 3.110875 C -2.086095 1.243688 -1.047033 0.364781 -0.0001575 0.0015 C -1.047033 -0.361781 -2.086095 -1.244594 -2.550939 -3.111781 " transform="matrix(1,0,0,-1,99.03922,69.814)"/>
<g style="fill:rgb(0%,0%,0%);fill-opacity:1;">
  <use xlink:href="#glyph0-1" x="90.476" y="77.823"/>
</g>
<path style="fill:none;stroke-width:0.79701;stroke-linecap:butt;stroke-linejoin:miter;stroke:rgb(0%,0%,0%);stroke-opacity:1;stroke-miterlimit:10;" d="M 0.00109375 0.0015 L 0.00109375 55.896031 " transform="matrix(1,0,0,-1,42.745,69.814)"/>
<path style="fill:none;stroke-width:0.79701;stroke-linecap:round;stroke-linejoin:round;stroke:rgb(0%,0%,0%);stroke-opacity:1;stroke-miterlimit:10;" d="M -2.550532 3.112188 C -2.085689 1.245 -1.046626 0.362188 0.00024875 -0.00109375 C -1.046626 -0.364375 -2.085689 -1.243281 -2.550532 -3.110469 " transform="matrix(0,-1,-1,0,42.745,13.51978)"/>
<g style="fill:rgb(0%,0%,0%);fill-opacity:1;">
  <use xlink:href="#glyph0-2" x="33.955" y="21.131"/>
</g>
<g clip-path="url(#clip2)" clip-rule="nonzero">
<path style="fill:none;stroke-width:0.79701;stroke-linecap:butt;stroke-linejoin:miter;stroke:rgb(0%,0%,0%);stroke-opacity:1;stroke-miterlimit:10;" d="M 0.00109375 0.0015 L -29.448125 -29.447719 " transform="matrix(1,0,0,-1,42.745,69.814)"/>
</g>
<g clip-path="url(#clip3)" clip-rule="nonzero">
<path style="fill:none;stroke-width:0.79701;stroke-linecap:round;stroke-linejoin:round;stroke:rgb(0%,0%,0%);stroke-opacity:1;stroke-miterlimit:10;" d="M -2.550774 3.11267 C -2.083969 1.242686 -1.045396 0.364318 -0.00129844 -0.000287265 C -1.045396 -0.364893 -2.083969 -1.24326 -2.550774 -3.113244 " transform="matrix(-0.7071,0.7071,0.7071,0.7071,13.01491,99.54409)"/>
</g>
<g style="fill:rgb(0%,0%,0%);fill-opacity:1;">
  <use xlink:href="#glyph0-3" x="3.321" y="96.107"/>
</g>
<path style="fill:none;stroke-width:0.79701;stroke-linecap:butt;stroke-linejoin:miter;stroke:rgb(100%,0%,0%);stroke-opacity:1;stroke-dasharray:0.79701,1.99255;stroke-miterlimit:10;" d="M 0.563594 0.564 L 56.6925 56.692906 " transform="matrix(1,0,0,-1,42.745,69.814)"/>
<path style="fill:none;stroke-width:0.79701;stroke-linecap:round;stroke-linejoin:round;stroke:rgb(100%,0%,0%);stroke-opacity:1;stroke-miterlimit:10;" d="M -2.55056 3.11267 C -2.083755 1.242686 -1.045182 0.364318 -0.00108454 -0.000287265 C -1.047944 -0.362131 -2.083755 -1.24326 -2.55056 -3.113244 " transform="matrix(-0.7071,0.7071,0.7071,0.7071,43.02678,69.53222)"/>
<path style="fill:none;stroke-width:0.79701;stroke-linecap:butt;stroke-linejoin:miter;stroke:rgb(100%,0%,0%);stroke-opacity:1;stroke-dasharray:0.79701,1.99255;stroke-miterlimit:10;" d="M 0.684687 0.411656 L 70.868281 42.521031 " transform="matrix(1,0,0,-1,42.745,69.814)"/>
<path style="fill:none;stroke-width:0.79701;stroke-linecap:round;stroke-linejoin:round;stroke:rgb(100%,0%,0%);stroke-opacity:1;stroke-miterlimit:10;" d="M -2.550851 3.111802 C -2.08662 1.243365 -1.046905 0.364403 0.000857078 -0.0000536075 C -1.046916 -0.364478 -2.085318 -1.244748 -2.549607 -3.11183 " transform="matrix(-0.85747,0.5145,0.5145,0.85747,43.0867,69.60898)"/>
<path style="fill:none;stroke-width:0.79701;stroke-linecap:butt;stroke-linejoin:miter;stroke:rgb(0%,0%,100%);stroke-opacity:1;stroke-miterlimit:10;" d="M 56.6925 56.692906 L 68.887812 44.5015 " transform="matrix(1,0,0,-1,42.745,69.814)"/>
<path style="fill:none;stroke-width:0.79701;stroke-linecap:round;stroke-linejoin:round;stroke:rgb(0%,0%,100%);stroke-opacity:1;stroke-miterlimit:10;" d="M -2.549909 3.109 C -2.083238 1.244464 -1.047474 0.363235 -0.000620404 0.00130293 C -1.044768 -0.363229 -2.086194 -1.244296 -2.550392 -3.111522 " transform="matrix(0.70714,0.70703,0.70703,-0.70714,111.91358,25.59511)"/>
<path style=" stroke:none;fill-rule:nonzero;fill:rgb(0%,0%,100%);fill-opacity:1;" d="M 101.429688 13.121094 C 101.429688 12.019531 100.539063 11.128906 99.4375 11.128906 C 98.335938 11.128906 97.445313 12.019531 97.445313 13.121094 C 97.445313 14.222656 98.335938 15.113281 99.4375 15.113281 C 100.539063 15.113281 101.429688 14.222656 101.429688 13.121094 Z M 101.429688 13.121094 "/>
<g style="fill:rgb(0%,0%,100%);fill-opacity:1;">
  <use xlink:href="#glyph0-4" x="97.051" y="7.61"/>
</g>
<path style="fill:none;stroke-width:0.398;stroke-linecap:butt;stroke-linejoin:miter;stroke:rgb(0%,0%,100%);stroke-opacity:1;stroke-miterlimit:10;" d="M -0.00021875 0.00109375 L 4.769312 0.00109375 " transform="matrix(1,0,0,-1,97.051,9.005)"/>
<path style=" stroke:none;fill-rule:nonzero;fill:rgb(0%,0%,100%);fill-opacity:1;" d="M 115.605469 27.292969 C 115.605469 26.191406 114.710938 25.300781 113.613281 25.300781 C 112.511719 25.300781 111.621094 26.191406 111.621094 27.292969 C 111.621094 28.394531 112.511719 29.285156 113.613281 29.285156 C 114.710938 29.285156 115.605469 28.394531 115.605469 27.292969 Z M 115.605469 27.292969 "/>
<g style="fill:rgb(0%,0%,100%);fill-opacity:1;">
  <use xlink:href="#glyph0-4" x="117.131" y="29.757"/>
</g>
<path style="fill:none;stroke-width:0.398;stroke-linecap:butt;stroke-linejoin:miter;stroke:rgb(0%,0%,100%);stroke-opacity:1;stroke-miterlimit:10;" d="M 0.0018125 -0.00034375 L 4.771344 -0.00034375 " transform="matrix(1,0,0,-1,117.131,31.152)"/>
<g style="fill:rgb(0%,0%,100%);fill-opacity:1;">
  <use xlink:href="#glyph1-1" x="124.116" y="29.757"/>
</g>
<g style="fill:rgb(0%,0%,100%);fill-opacity:1;">
  <use xlink:href="#glyph1-2" x="134.076607" y="29.757"/>
</g>
<g style="fill:rgb(0%,0%,100%);fill-opacity:1;">
  <use xlink:href="#glyph0-4" x="139.611828" y="29.757"/>
</g>
<path style="fill:none;stroke-width:0.398;stroke-linecap:butt;stroke-linejoin:miter;stroke:rgb(0%,0%,100%);stroke-opacity:1;stroke-miterlimit:10;" d="M -0.00071875 -0.00034375 L 4.772719 -0.00034375 " transform="matrix(1,0,0,-1,139.614,31.152)"/>
</g>
</svg>

<svg xmlns="http://www.w3.org/2000/svg" xmlns:xlink="http://www.w3.org/1999/xlink" width="196.94" height="134.01" viewBox="0 0 147.71 100.5"><defs><symbol id="b" overflow="visible"><path d="M4.84-3.8c.05-.14.05-.15.05-.23 0-.17-.14-.27-.3-.27-.09 0-.25.07-.34.2l-.14.55q-.12.38-.2.8l-.46 1.8c-.03.14-.47.84-1.12.84-.5 0-.61-.44-.61-.81q0-.66.5-1.95c.15-.41.2-.52.2-.72a.8.8 0 0 0-.81-.82C.66-4.4.3-2.95.3-2.87c0 .1.1.1.1.1.12 0 .12-.03.16-.18.28-.94.67-1.24 1.02-1.24.08 0 .25 0 .25.32 0 .25-.11.51-.17.7a6 6 0 0 0-.58 2.1C1.08-.2 1.7.1 2.3.1q.58-.02 1-.45a4 4 0 0 1-.64 1.54c-.27.33-.64.63-1.1.63-.14 0-.6-.03-.76-.42.15 0 .3 0 .42-.13a.5.5 0 0 0 .2-.4c0-.32-.26-.35-.36-.35C.83.53.5.7.5 1.17c0 .5.44.88 1.06.88 1.02 0 2.05-.9 2.33-2.03Zm0 0" style="stroke:none"/></symbol><symbol id="c" overflow="visible"><path d="M1.33-.83c.53-.58.83-.83 1.19-1.14 0 0 .6-.53.96-.89.96-.92 1.18-1.4 1.18-1.45 0-.1-.1-.1-.11-.1-.08 0-.1.02-.16.11-.3.49-.5.64-.73.64-.25 0-.36-.15-.52-.32-.19-.22-.36-.43-.69-.43-.75 0-1.2.93-1.2 1.14q0 .1.1.11c.1 0 .12-.04.15-.1.19-.47.77-.47.84-.47q.3.01.63.14c.4.15.51.15.76.15a16 16 0 0 1-1.37 1.3l-.9.84A5 5 0 0 0 .41.02C.42.1.53.1.55.1Q.64.13.7-.02c.24-.35.53-.62.86-.62.22 0 .33.1.58.37.16.22.34.38.63.38 1 0 1.57-1.27 1.57-1.53q0-.1-.12-.11c-.1 0-.11.06-.14.14-.24.64-.88.83-1.2.83Q2.59-.57 2.3-.7c-.35-.12-.5-.17-.7-.17-.02 0-.18 0-.27.03m0 0" style="stroke:none"/></symbol><symbol id="f" overflow="visible"><path d="M3.33-3.02c.06-.25.3-1.17.98-1.17a1 1 0 0 1 .5.13.6.6 0 0 0-.47.54c0 .16.11.35.38.35.22 0 .53-.17.53-.58 0-.52-.58-.66-.92-.66-.58 0-.92.54-1.05.75A1.1 1.1 0 0 0 2.2-4.4C1.17-4.4.6-3.12.6-2.87c0 .1.1.1.12.1q.1 0 .12-.1c.35-1.07 1-1.32 1.35-1.32.19 0 .53.1.53.67 0 .32-.17.97-.53 2.38-.16.6-.52 1.03-.96 1.03-.06 0-.28 0-.5-.12.25-.07.47-.27.47-.55 0-.27-.22-.34-.36-.34-.3 0-.54.25-.54.57 0 .46.48.66.92.66.67 0 1.03-.7 1.05-.75.12.36.48.75 1.07.75 1.04 0 1.6-1.28 1.6-1.53 0-.11-.08-.11-.11-.11-.1 0-.11.05-.14.1C4.36-.33 3.69-.1 3.37-.1c-.39 0-.54-.31-.54-.66 0-.21.04-.43.15-.87Zm0 0" style="stroke:none"/></symbol><symbol id="g" overflow="visible"><path d="m.88-.6-.1.44c0 .18.14.27.3.27.12 0 .3-.08.37-.28.02-.03.35-1.4.4-1.58.07-.33.26-1.02.3-1.3.05-.12.33-.6.57-.8.08-.07.37-.34.8-.34.26 0 .4.13.42.13-.3.04-.52.28-.52.54 0 .16.11.35.38.35.26 0 .54-.24.54-.6 0-.34-.3-.64-.82-.64-.64 0-1.08.49-1.27.77a.9.9 0 0 0-.92-.77c-.46 0-.64.4-.74.57-.17.34-.3.93-.3.96 0 .11.1.11.12.11.1 0 .1-.01.17-.23.17-.7.37-1.19.73-1.19.16 0 .3.08.3.46 0 .21-.03.32-.16.84Zm0 0" style="stroke:none"/></symbol><symbol id="h" overflow="visible"><path d="M4.08-2.3h2.78c.14 0 .33 0 .33-.2 0-.19-.19-.19-.33-.19H4.08v-2.8c0-.13 0-.32-.2-.32s-.2.18-.2.33v2.8H.88c-.14 0-.33 0-.33.18 0 .2.19.2.33.2h2.78V.5c0 .14 0 .33.2.33s.2-.19.2-.33Zm0 0" style="stroke:none"/></symbol><symbol id="i" overflow="visible"><path d="M3.78-.55v.66L5.25 0v-.31c-.69 0-.78-.06-.78-.56v-6.05l-1.42.1v.32c.68 0 .76.06.76.56v2.16a1.6 1.6 0 0 0-1.25-.63C1.4-4.4.34-3.42.34-2.14.34-.87 1.31.1 2.45.1c.64 0 1.08-.34 1.33-.66m0-2.67v2.05c0 .17 0 .19-.1.36-.3.48-.74.7-1.18.7-.45 0-.81-.26-1.05-.64-.25-.4-.28-.97-.28-1.4 0-.35.02-.94.3-1.4.22-.3.6-.64 1.14-.64.34 0 .77.16 1.06.6.11.17.11.18.11.37m0 0" style="stroke:none"/></symbol><clipPath id="a"><path d="M0 0h147.7v100.5H0Zm0 0"/></clipPath><clipPath id="d"><path d="M2 58h53v42.5H2Zm0 0"/></clipPath><clipPath id="e"><path d="M12 95h6v5.5h-6Zm0 0"/></clipPath></defs><g clip-path="url(#a)"><path d="M0 100.5h147.7V0H0Zm0 0" style="stroke:none;fill-rule:nonzero;fill:#ffe4c8;fill-opacity:1"/></g><path d="M0 0h55.9" style="fill:none;stroke-width:.79701;stroke-linecap:butt;stroke-linejoin:miter;stroke:#000;stroke-opacity:1;stroke-miterlimit:10" transform="matrix(1 0 0 -1 42.74 69.81)"/><path d="M-2.55 3.11C-2.1 1.24-1.05.36 0 .01c-1.05-.37-2.09-1.25-2.55-3.12" style="fill:none;stroke-width:.79701;stroke-linecap:round;stroke-linejoin:round;stroke:#000;stroke-opacity:1;stroke-miterlimit:10" transform="matrix(1 0 0 -1 99.04 69.81)"/><use xlink:href="#b" x="90.48" y="77.82" style="fill:#000;fill-opacity:1"/><path d="M0 0v55.9" style="fill:none;stroke-width:.79701;stroke-linecap:butt;stroke-linejoin:miter;stroke:#000;stroke-opacity:1;stroke-miterlimit:10" transform="matrix(1 0 0 -1 42.74 69.81)"/><path d="M-2.55 3.11C-2.1 1.25-1.05.36 0 0c-1.05-.36-2.09-1.24-2.55-3.11" style="fill:none;stroke-width:.79701;stroke-linecap:round;stroke-linejoin:round;stroke:#000;stroke-opacity:1;stroke-miterlimit:10" transform="matrix(0 -1 -1 0 42.74 13.52)"/><use xlink:href="#c" x="33.95" y="21.13" style="fill:#000;fill-opacity:1"/><g clip-path="url(#d)"><path d="m0 0-29.45-29.45" style="fill:none;stroke-width:.79701;stroke-linecap:butt;stroke-linejoin:miter;stroke:#000;stroke-opacity:1;stroke-miterlimit:10" transform="matrix(1 0 0 -1 42.74 69.81)"/></g><g clip-path="url(#e)"><path d="M-2.55 3.11C-2.08 1.24-1.05.36 0 0c-1.05-.36-2.08-1.24-2.55-3.11" style="fill:none;stroke-width:.79701;stroke-linecap:round;stroke-linejoin:round;stroke:#000;stroke-opacity:1;stroke-miterlimit:10" transform="rotate(135 -14.1 52.47)scale(1 -1)"/></g><use xlink:href="#f" x="3.32" y="96.11" style="fill:#000;fill-opacity:1"/><path d="M.56.56 56.7 56.7" style="fill:none;stroke-width:.79701;stroke-linecap:butt;stroke-linejoin:miter;stroke:red;stroke-opacity:1;stroke-dasharray:.79701,1.99255;stroke-miterlimit:10" transform="matrix(1 0 0 -1 42.74 69.81)"/><path d="M-2.55 3.11C-2.08 1.24-1.05.36 0 0c-1.05-.36-2.08-1.24-2.55-3.11" style="fill:none;stroke-width:.79701;stroke-linecap:round;stroke-linejoin:round;stroke:red;stroke-opacity:1;stroke-miterlimit:10" transform="rotate(135 7.11 43.68)scale(1 -1)"/><path d="m.68.41 70.19 42.11" style="fill:none;stroke-width:.79701;stroke-linecap:butt;stroke-linejoin:miter;stroke:red;stroke-opacity:1;stroke-dasharray:.79701,1.99255;stroke-miterlimit:10" transform="matrix(1 0 0 -1 42.74 69.81)"/><path d="M-2.55 3.11C-2.1 1.24-1.05.36 0 0c-1.05-.36-2.09-1.24-2.55-3.11" style="fill:none;stroke-width:.79701;stroke-linecap:round;stroke-linejoin:round;stroke:red;stroke-opacity:1;stroke-miterlimit:10" transform="matrix(-.85747 .5145 .5145 .85747 43.09 69.6)"/><path d="m56.7 56.7 12.19-12.2" style="fill:none;stroke-width:.79701;stroke-linecap:butt;stroke-linejoin:miter;stroke:#00f;stroke-opacity:1;stroke-miterlimit:10" transform="matrix(1 0 0 -1 42.74 69.81)"/><path d="M-2.55 3.1C-2.08 1.25-1.05.37 0 0-1.04-.36-2.1-1.24-2.55-3.1" style="fill:none;stroke-width:.79701;stroke-linecap:round;stroke-linejoin:round;stroke:#00f;stroke-opacity:1;stroke-miterlimit:10" transform="rotate(45 25.06 147.9)scale(.99997 -.99997)"/><path d="M101.43 13.12a2 2 0 1 0-3.98 0 2 2 0 0 0 3.98 0m0 0" style="stroke:none;fill-rule:nonzero;fill:#00f;fill-opacity:1"/><use xlink:href="#g" x="97.05" y="7.61" style="fill:#00f;fill-opacity:1"/><path d="M0 0h4.77" style="fill:none;stroke-width:.398;stroke-linecap:butt;stroke-linejoin:miter;stroke:#00f;stroke-opacity:1;stroke-miterlimit:10" transform="matrix(1 0 0 -1 97.05 9)"/><path d="M115.6 27.3a2 2 0 1 0-3.98 0 2 2 0 0 0 3.99 0m0 0" style="stroke:none;fill-rule:nonzero;fill:#00f;fill-opacity:1"/><use xlink:href="#g" x="117.13" y="29.76" style="fill:#00f;fill-opacity:1"/><path d="M0 0h4.77" style="fill:none;stroke-width:.398;stroke-linecap:butt;stroke-linejoin:miter;stroke:#00f;stroke-opacity:1;stroke-miterlimit:10" transform="matrix(1 0 0 -1 117.13 31.15)"/><use xlink:href="#h" x="124.12" y="29.76" style="fill:#00f;fill-opacity:1"/><use xlink:href="#i" x="134.08" y="29.76" style="fill:#00f;fill-opacity:1"/><use xlink:href="#g" x="139.61" y="29.76" style="fill:#00f;fill-opacity:1"/><path d="M0 0h4.77" style="fill:none;stroke-width:.398;stroke-linecap:butt;stroke-linejoin:miter;stroke:#00f;stroke-opacity:1;stroke-miterlimit:10" transform="matrix(1 0 0 -1 139.61 31.15)"/></svg>
